public/assets/chips.svg

<svg width="351" height="137" viewBox="0 0 351 137" fill="none" xmlns="http://www.w3.org/2000/svg">
<path d="M126 8.18489V1L184 10.8792L172.743 96L147.273 93.9044" fill="#5C404E"/>
<path d="M103.76 106.244L88.1602 0.744141L145.76 12.3441V106.244H103.76Z" fill="#FACABC"/>
<path d="M6.25696 136.244L0.957031 98.2441L69.157 85.7441L61.457 129.444L6.25696 136.244Z" fill="#3F7AD3"/>
<path d="M20.5586 94.6442L16.0586 67.7441L78.8586 72.0441L74.5586 111.044L65.0586 108.644L69.1586 85.7441L20.5586 94.6442Z" fill="#FACABC"/>
<path d="M13.6602 95.9449L3.66016 41.5449L66.7601 48.3449L61.7601 70.8449L16.0602 67.7449L20.5602 94.645L13.6602 95.9449Z" fill="#FFF1F0"/>
<path d="M56.557 47.2449L48.457 7.04492L88.557 3.54492L100.757 85.7449L77.657 82.645L78.8571 72.0449L61.757 70.8449L66.757 48.3449L56.557 47.2449Z" fill="#3F7AD3"/>
<path d="M6.25696 136.244L0.957031 98.2441L69.157 85.7441L67.557 94.7441L7.95703 103.344L11.8571 135.544L6.25696 136.244Z" fill="#2E5A9C"/>
<path d="M20.5586 94.6442L16.0586 67.7441L78.8586 72.0441L78.1586 78.3441L21.6586 72.3441L26.4586 93.6442L20.5586 94.6442Z" fill="#BE988D"/>
<path d="M66.7601 48.3449L65.6602 53.4449L11.4602 48.3449L18.2601 95.145L13.6602 95.9449L3.66016 41.5449L66.7601 48.3449Z" fill="#CBBEBD"/>
<path d="M56.557 47.2449L48.457 7.04492L88.557 3.54492L89.657 11.0449H56.157L62.057 47.8449L56.557 47.2449Z" fill="#2E5A9C"/>
<path d="M64.2578 59.7441L65.3579 71.1442L61.7578 70.8441L64.2578 59.7441Z" fill="#2E5A9C"/>
<path d="M103.76 106.244L88.1602 0.744141L145.76 12.3441V25.6442L99.4602 14.5441L110.26 106.244H103.76Z" fill="#BE988D"/>
<path d="M184.257 10.6442L182.957 19.6442L145.757 14.0441V12.3441L123.457 7.94415V0.744141L184.257 10.6442Z" fill="#2C1E25"/>
<path d="M180.958 34.5433L229.558 13.9434L252.358 21.6434L274.758 16.6434L301.758 24.2433L322.758 13.9434L333.858 31.2433L350.658 39.0433L145.758 106.243V93.8433L161.558 95.0433L172.458 95.9434L180.958 34.5433Z" fill="#A75155"/>
<path d="M61.457 129.445L138.857 106.245H103.757L100.757 85.7445L77.657 82.6445L74.557 111.044L65.057 108.645L61.457 129.445Z" fill="#A75155"/>
</svg>

<svg width="351" height="137" fill="none" xmlns="http://www.w3.org/2000/svg"><path d="M126 8.185V1l58 9.88L172.743 96l-25.47-2.096" fill="#5C404E"/><path d="M103.76 106.244L88.16.744l57.6 11.6v93.9h-42z" fill="#FACABC"/><path d="M6.257 136.244l-5.3-38 68.2-12.5-7.7 43.7-55.2 6.8z" fill="#3F7AD3"/><path d="M20.559 94.644l-4.5-26.9 62.8 4.3-4.3 39-9.5-2.4 4.1-22.9-48.6 8.9z" fill="#FACABC"/><path d="M13.66 95.945l-10-54.4 63.1 6.8-5 22.5-45.7-3.1 4.5 26.9-6.9 1.3z" fill="#FFF1F0"/><path d="M56.557 47.245l-8.1-40.2 40.1-3.5 12.2 82.2-23.1-3.1 1.2-10.6-17.1-1.2 5-22.5-10.2-1.1z" fill="#3F7AD3"/><path d="M6.257 136.244l-5.3-38 68.2-12.5-1.6 9-59.6 8.6 3.9 32.2-5.6.7z" fill="#2E5A9C"/><path d="M20.559 94.644l-4.5-26.9 62.8 4.3-.7 6.3-56.5-6 4.8 21.3-5.9 1z" fill="#BE988D"/><path d="M66.76 48.345l-1.1 5.1-54.2-5.1 6.8 46.8-4.6.8-10-54.4 63.1 6.8z" fill="#CBBEBD"/><path d="M56.557 47.245l-8.1-40.2 40.1-3.5 1.1 7.5h-33.5l5.9 36.8-5.5-.6zM64.258 59.744l1.1 11.4-3.6-.3 2.5-11.1z" fill="#2E5A9C"/><path d="M103.76 106.244L88.16.744l57.6 11.6v13.3l-46.3-11.1 10.8 91.7h-6.5z" fill="#BE988D"/><path d="M184.257 10.644l-1.3 9-37.2-5.6v-1.7l-22.3-4.4v-7.2l60.8 9.9z" fill="#2C1E25"/><path d="M180.958 34.543l48.6-20.6 22.8 7.7 22.4-5 27 7.6 21-10.3 11.1 17.3 16.8 7.8-204.9 67.2v-12.4l15.8 1.2 10.9.9 8.5-61.4zM61.457 129.445l77.4-23.2h-35.1l-3-20.5-23.1-3.1-3.1 28.399-9.5-2.399-3.6 20.8z" fill="#A75155"/></svg>
